X:281
T:Lonesome Hearted Blues
C:Shawn Lane (Blue Highway)
N:Transcribed by James Dalton
R:bluegrass
L:1/8
Q:1/4=350
M:4/4
K:C
z2 ^F2 ^G2 B2 | "B"[^f^c]^d [fd][fd] [fc]d [fd]B | d^c B^G BG Bc | "E"d^c Bc ^GB Bc | 
"B"B2 ^F2 ^G2 B2 | ^c^d e2 ^f2 ^g2 | a^g ^fg fe ^df | "F#"e^d ^ce =dc B^G | ^F4 z[eAA] [eAA][eAA] | 
"B"[eAA][eAA] [eAA]^G2[eAG] [eAG][eAG] | [eA^G]^F4z FG | "E"B2 B2 ^c2 d^d | "B"^f2 ^g2 a2 ag | 
^f^g fg e=f ^f=f | "F#"e^d Bd Ad Bd | "B"A^d Bd A^F =FD | B,8 | z8 | z8 | z8 | 
z8 | z8 | z8 | z8 | 


